!!! OTL: Berkowitz585
!!! Chapter: 1
!!! Section: V
!!! Page: 147
!!! Mode: 
!!! Encoder: AR
**kern
*staff1
=1-
!!pagebreak:original
*clefG2
*k[]
*C:
*M4/4
8b\L
8b\
8ff#\
8ff#\J
8dd\L
8dd\
8ffn\
8ee\J
=2
8cc#\L
8cc#\
8gg#\
8gg#\J
8ggn\L
8ee\J
8gg\
8r
=3
8gg#\L
8gg#\
8ee\
8aa\J
8ggn\L
8gg\
8ee-\
8ccn\J
=4
!!linebreak:original
8een\L
8ee\
8gg#\
8gg#\J
8aa#\L
8bb\
8ggn\
8ee-\J
=5
8gg-\L
8ff\
8dd\
8b\J
8dd\L
8ff#\J
4aa#\
=6
8bb\L
8ggn\
8ee-\
8cc\J
8bb\L
8gg\
8een\
8cc#\J
=7
8bb\L
8gg\
8ee-\
8dd-\J
8een\L
8ccn\J
8b\
8r
==
*-
